dist/intermediate-svg/backArrow.svg

<?xml version="1.0" encoding="utf-8"?><svg width="16" height="11" fill="none" xmlns="http://www.w3.org/2000/svg" viewBox="0 0 16 11"><path d="M14.6387 10.8026L14.3141 10.9324C14.0545 11.0623 13.7299 10.9974 13.5351 10.8026C11.328 8.40072 8.79622 7.88133 7.23822 7.81641V10.0885C7.23822 10.6078 6.65396 10.9324 6.19954 10.6079L0.292125 6.38827C-0.0973751 6.1286 -0.0973751 5.60921 0.292125 5.34954L6.19954 1.12995C6.65396 0.805368 7.23822 1.12998 7.23822 1.64932V3.72662C10.8736 4.24596 13.9896 7.23209 14.9633 10.0235C15.0931 10.2832 14.9633 10.6728 14.6387 10.8026Z" fill="#fff"/><path d="M14.6387 9.80264L14.3141 9.93244C14.0545 10.0623 13.7299 9.99739 13.5351 9.80264C11.328 7.40072 8.79622 6.88133 7.23822 6.81641V9.08849C7.23822 9.60783 6.65396 9.93244 6.19954 9.60786L0.292125 5.38827C-0.0973751 5.1286 -0.0973751 4.60921 0.292125 4.34954L6.19954 0.129951C6.65396 -0.194632 7.23822 0.129983 7.23822 0.649317V2.72662C10.8736 3.24596 13.9896 6.23209 14.9633 9.02351C15.0931 9.28318 14.9633 9.67281 14.6387 9.80264Z" fill="#1E6393"/></svg>

<?xml version="1.0" encoding="utf-8"?><svg width="16" height="11" fill="none" xmlns="http://www.w3.org/2000/svg" viewBox="0 0 16 11"><path d="M14.639 10.803l-.325.13a.69.69 0 01-.779-.13C11.328 8.4 8.796 7.88 7.238 7.816v2.272c0 .52-.584.844-1.038.52L.292 6.388a.608.608 0 010-1.038L6.2 1.13a.649.649 0 011.038.52v2.077c3.636.519 6.752 3.505 7.725 6.296.13.26 0 .65-.324.78z" fill="#fff"/><path d="M14.639 9.803l-.325.13a.69.69 0 01-.779-.13C11.328 7.4 8.796 6.88 7.238 6.816v2.272c0 .52-.584.844-1.038.52L.292 5.388a.608.608 0 010-1.038L6.2.13a.649.649 0 011.038.52v2.077c3.636.519 6.752 3.505 7.725 6.297.13.26 0 .649-.324.779z" fill="#1E6393"/></svg>
